modules/hawcons-stroke/icons/icon-61-document-recording.svg

<?xml version="1.0" encoding="UTF-8" standalone="no"?>
<svg width="32px" height="32px" viewBox="0 0 32 32" version="1.1" xmlns="http://www.w3.org/2000/svg" xmlns:xlink="http://www.w3.org/1999/xlink" xmlns:sketch="http://www.bohemiancoding.com/sketch/ns">
    <!-- Generator: Sketch 3.0.3 (7891) - http://www.bohemiancoding.com/sketch -->
    <title>icon 61 document recording</title>
    <desc>Created with Sketch.</desc>
    <defs></defs>
    <g id="Page-1" stroke="none" stroke-width="1" fill="none" fill-rule="evenodd" sketch:type="MSPage">
        <g id="icon-61-document-recording" sketch:type="MSArtboardGroup" fill="#929292">
            <path d="M19.5,3 L9.00276013,3 C7.89666625,3 7,3.89833832 7,5.00732994 L7,27.9926701 C7,29.1012878 7.89092539,30 8.99742191,30 L24.0025781,30 C25.1057238,30 26,29.1017876 26,28.0092049 L26,10.5 L26,10 L20,3 L19.5,3 L19.5,3 L19.5,3 Z M19,4 L8.9955775,4 C8.44573523,4 8,4.45526288 8,4.99545703 L8,28.004543 C8,28.5543187 8.45470893,29 8.9999602,29 L24.0000398,29 C24.5523026,29 25,28.5550537 25,28.0066023 L25,11 L20.9979131,11 C19.8944962,11 19,10.1134452 19,8.99408095 L19,4 L19,4 Z M20,4.5 L20,8.99121523 C20,9.54835167 20.4506511,10 20.9967388,10 L24.6999512,10 L20,4.5 L20,4.5 Z M13,20.4945942 L13,19 L14,19 L14,20.4926111 C14,21.8774037 15.1096621,23 16.5,23 C17.8807119,23 19,21.8753289 19,20.4926111 L19,19 L20,19 L20,20.4945942 C20,22.2621437 18.6961471,23.7217906 17,23.9645376 L17,26 L19,26 L19,27 L14,27 L14,26 L16,26 L16,23.964377 C14.3066821,23.7210154 13,22.2602538 13,20.4945942 L13,20.4945942 Z M15,16.5016756 L15,20.4983244 C15,21.3276769 15.6657972,22 16.5,22 C17.3284271,22 18,21.3288106 18,20.4983244 L18,16.5016756 C18,15.6723231 17.3342028,15 16.5,15 C15.6715729,15 15,15.6711894 15,16.5016756 L15,16.5016756 Z M16.5,16 C16.2238576,16 16,16.2148438 16,16.4976988 L16,20.5023012 C16,20.7771727 16.2319336,21 16.5,21 C16.7761424,21 17,20.7851562 17,20.5023012 L17,16.4976988 C17,16.2228273 16.7680664,16 16.5,16 L16.5,16 Z" id="document-recording" sketch:type="MSShapeGroup"></path>
        </g>
    </g>
</svg>

<svg width="32" height="32" viewBox="0 0 32 32" xmlns="http://www.w3.org/2000/svg"><path d="M19.5 3H9.003A2.005 2.005 0 0 0 7 5.007v22.986A2 2 0 0 0 8.997 30h15.006A1.999 1.999 0 0 0 26 28.01V10l-6-7h-.5zM19 4H8.996C8.446 4 8 4.455 8 4.995v23.01c0 .55.455.995 1 .995h15c.552 0 1-.445 1-.993V11h-4.002A1.995 1.995 0 0 1 19 8.994V4zm1 .5v4.491c0 .557.45 1.009.997 1.009H24.7L20 4.5zm-7 15.995V19h1v1.493A2.498 2.498 0 0 0 16.5 23c1.38 0 2.5-1.125 2.5-2.507V19h1v1.495a3.503 3.503 0 0 1-3 3.47V26h2v1h-5v-1h2v-2.036a3.507 3.507 0 0 1-3-3.47zm2-3.993v3.996a1.5 1.5 0 0 0 3 0v-3.996a1.5 1.5 0 0 0-3 0zM16.5 16c-.276 0-.5.215-.5.498v4.004c0 .275.232.498.5.498.276 0 .5-.215.5-.498v-4.004a.504.504 0 0 0-.5-.498z" fill="#929292" fill-rule="evenodd"/></svg>
